X:15
T: Szerelmes vagyok, de jól tudom, kibe
Q: 1/4=116
M:4/4
L:1/4
K:Bb
g/g/f/e/ | d z/ B/ | c/c/B/A/ | G z |
w: Sze-rel-mes va-gyok, de jól tu-dom, ki-be,
d g | b/a/ g | a/g/f/e/ | d z |
w: Egy bar-na le-gény csal-fa sze-mé-be.
d g | b/a/ g | a/g/f/e/ | d z |
w: Sze-re-tem is őt, ő is en-ge-met,
g/g/f/e/ | d z/ B/ | c/c/B/A/ | G z |
w: Ver-je meg a sors ha meg-csal en-ge-met.
W: A mi kis tanyánk, egy puszta, néma táj,
W: Az én szeretőm egy barna hajú lány.
W: Barna hajú lány búsan sirdogál,
W: Jobb helyet talál a babája vállán.
W:
W: Mit ér a rózsa, ha nincsne levele.
W: Mit ér az a lány, ha nincs szeretője!
W: Mondd meg, ha szeretsz, még enyém lehetsz,
W: Pártfogód leszek, tudom, megemlegetsz.

